images/svgs/new1.svg

<svg xmlns="http://www.w3.org/2000/svg" xmlns:xlink="http://www.w3.org/1999/xlink" version="1.1" style="enable-background:new 0 0 250 250;" xml:space="preserve" width="57" height="57"><rect id="backgroundrect" width="100%" height="100%" x="0" y="0" fill="none" stroke="none"/>

<g class="currentLayer" style=""><title>Layer 1</title><path d="M50.50000915527343,32.70001068115235 l6.1,-4.4 l-6.1,-4.4 l3.9,-6.4 l-7.3,-1.8 l1.2,-7.4 l-7.4,1.2 l-1.8,-7.3 l-6.4,3.9 l-4.4,-6.1 l-4.4,6.1 l-6.4,-3.9 l-1.8,7.3 l-7.4,-1.2 l1.2,7.4 l-7.3,1.8 l3.9,6.4 l-6.1,4.4 l6.1,4.4 l-3.9,6.4 l7.3,1.8 l-1.2,7.4 l7.4,-1.2 l1.8,7.3 l6.4,-3.9 l4.4,6.1 l4.4,-6.1 l6.4,3.9 l1.8,-7.3 l7.4,1.2 l-1.2,-7.4 l7.3,-1.8 L50.50000915527343,32.70001068115235 zM17.900009155273438,32.50001068115235 l-2,-4.2 l-1.1,4.2 h-2.8 l2.3,-8.4 h2.6 l1.9,4 l1.1,-4 h2.8 l-2.3,8.4 H17.900009155273438 zM30.10000915527344,26.400010681152338 h-4.4 l-0.2,0.9 h4.1 l-0.5,2 h-4.1 l-0.30000000000000004,0.9 h4.5 l-0.6000000000000001,2.3 h-7.2 l2.3,-8.4 h7.2 L30.10000915527344,26.400010681152338 zM39.40000915527344,32.60001068115234 h-2.4 l-0.4,-4.2 l-2.6,4.2 h-2.4 l-0.5,-8.5 h2.9 l0.1,4 l2.4,-4.1 h2.4 l0.30000000000000004,4.1 l2.3,-4 h3 L39.40000915527344,32.60001068115234 z" id="svg_1" class=""/></g></svg>

<svg width="57" height="57" viewBox="0 0 57 57" fill="none" xmlns="http://www.w3.org/2000/svg">
<rect x="11" y="14" width="35" height="29" fill="white"/>
<path d="M50.5 32.7L56.6 28.3L50.5 23.9L54.4 17.5L47.1 15.7L48.3 8.3L40.9 9.5L39.1 2.2L32.7 6.10001L28.3 0L23.9 6.10001L17.5 2.2L15.7 9.5L8.3 8.3L9.5 15.7L2.2 17.5L6.1 23.9L0 28.3L6.1 32.7L2.2 39.1L9.5 40.9L8.3 48.3L15.7 47.1L17.5 54.4L23.9 50.5L28.3 56.6L32.7 50.5L39.1 54.4L40.9 47.1L48.3 48.3L47.1 40.9L54.4 39.1L50.5 32.7ZM17.9 32.5L15.9 28.3L14.8 32.5H12L14.3 24.1H16.9L18.8 28.1L19.9 24.1H22.7L20.4 32.5H17.9ZM30.1 26.4H25.7L25.5 27.3H29.6L29.1 29.3H25L24.7 30.2H29.2L28.6 32.5H21.4L23.7 24.1H30.9L30.1 26.4ZM39.4 32.6H37L36.6 28.4L34 32.6H31.6L31.1 24.1H34L34.1 28.1L36.5 24H38.9L39.2 28.1L41.5 24.1H44.5L39.4 32.6Z" fill="black"/>
</svg>
